X: 1
T: Meg Fogarty's
M: 2/4
L: 1/8
R: polka
K: Dmaj
fe dc|Bc de| fb ba|b2b2|
fe dc|Bc dB| cB AB|cd ec|
fe dc|Bc de| fb ba|b2b2|
fe dc|Bc dB| cB Ac|B2B2|
|: b2 ba|b2 bf| a2 a^g|af a2|
b2 ba|b2 ba| fe dB|c2 B2:|
